!!!!SEGMENT: Any3006-Cortese_alma_gentile--Newberry_Partbooks.krn
!!!id: Any3006
!!!AGN: Madrigal
!!!voices: 4
!!!COM: Anonymous
!!!SMS: Newberry Partbooks
!!!OTL: Cortese alma gentile (Newberry Partbooks)
**kern	**kern	**kern	**kern
*part4	*part3	*part2	*part1
*staff4	*staff3	*staff2	*staff1
*I"Bassus	*I"Tenor	*I"Altus	*I"Superius
*I'B	*I'T	*I'A	*I'S
*clefF4	*clefGv2	*clefGv2	*clefG2
*k[b-]	*k[b-]	*k[b-]	*k[b-]
*F:	*F:	*F:	*F:
*M2/1	*M2/1	*M2/1	*M2/1
*met(C)	*met(C)	*met(C)	*met(C)
0r	0r	1r	1dd
.	.	1g	[1dd
=1	=1	=1	=1
0r	0r	2.b-y	2dd]
.	.	.	2dd
.	.	4b-y	.
.	.	2a	2cc
.	.	[2g	2b-y
=2	=2	=2	=2
1r	1d	2g]	1a
.	.	2f#i	.
1G	[1d	1g	1g
=3	=3	=3	=3
2.B-y	2d]	0r	0r
.	2d	.	.
4B-y	.	.	.
2A	2c	.	.
[2G	2B-y	.	.
=4	=4	=4	=4
2G]	1A	1r	1r
2F#i	.	.	.
1G	[1G	1d	1b-y
=5	=5	=5	=5
1E-X	1G]	1.e-X	1.b-y
[1E-i	1B-y	.	.
.	.	2e-i	2b-y
=6	=6	=6	=6
2E-]	1.B-y	1g	1ee-X
2E-i	.	.	.
2E-i	.	1g	1ee-i
2E-i	2B-y	.	.
=7	=7	=7	=7
1BB-y	2B-y	1f	1dd
.	2B-y	.	.
[1F	1A	1f	1cc
=8	=8	=8	=8
1F]	1A	2r	2r
.	.	2f	2a
1r	1r	2g	2b-y
.	.	2a	2cc
=9	=9	=9	=9
0r	2r	1b-y	1dd
.	2B-y	.	.
.	2c	2a	2cc
.	2d	[2b-y	2f
=10	=10	=10	=10
1r	1e-i	2b-]	2g
.	.	4a	2a
.	.	4g	.
2r	1d	2f	1b-y
2BB-y	.	2f	.
=11	=11	=11	=11
2C	2r	2e	2a
2D	2F	1d	1b-y
1E-i	2G	.	.
.	2A	2c	4a
.	.	.	4g
=12	=12	=12	=12
2D	1B-y	2d	2f
4BB-y	.	1f	1dd
4C	.	.	.
4D	1A	.	.
4E	.	.	.
2F	.	2a	2cc
=13	=13	=13	=13
2G	2.d	2g	2b-y
2D	.	2f	2a
.	4c	.	.
2E-X	2B-y	1e-X	4a
.	.	.	4g
2C	2c	.	[2g
=14	=14	=14	=14
1D	1A	0d	2g]
.	.	.	2f#i
1r	1G	.	1g
=15	=15	=15	=15
1D	2r	2r	2r
.	2A	2d	2f
2D	2A	2d	2f
2BB-y	2B-y	2d	2f
=16	=16	=16	=16
2F	2A	2c	2f
2G	2.B-y	2B-y	2e
1F	.	1c	1f
.	8AL	.	.
.	8GJ	.	.
.	2A	.	.
=17	=17	=17	=17
1BB-y	1B-y	2d	1f
.	.	2B-y	.
2r	2r	2c	2r
2E-X	2B-y	[2e-X	2g
=18	=18	=18	=18
1E-i	2c	2e-]	1g
.	1e-X	2B-y	.
1E-i	.	2c	1g
.	2B-y	[2e-i	.
=19	=19	=19	=19
2E-i	2c	4e-]	2g
.	.	4d	.
2E-i	2e-i	4c	2g
.	.	4B-y	.
1F	2d	1A	1f
.	[2c	.	.
=20	=20	=20	=20
1C	2c]	1G	1e
.	4B-y	.	.
.	4A	.	.
2r	2G	2r	2r
2C	2c	2e	2g
=21	=21	=21	=21
2D	2A	2d	2f
2BB-y	2B-y	2d	2f
2C	2G	2c	2e
2C	2A	2c	2e
=22	=22	=22	=22
4BB-y	2B-y	1.f	4d
4C	.	.	4e
4D	2B-y	.	4f
4E	.	.	4g
4F	2.A	.	4a
4G	.	.	4b-y
[2A	.	4e	[2cc
.	4B-y	4d	.
=23	=23	=23	=23
4A]	2c	2e	4cc]
4G	.	.	4b-y
4F	1d	2f	4a
4E	.	.	4g
2D	.	2f	2f
2G	4c	2e	2g
.	4B-y	.	.
=24	=24	=24	=24
2F	2c	0f	2a
2BB-y	2d	.	1b-y
1F	1c	.	.
.	.	.	2a
=25	=25	=25	=25
1BB-y	1B-y	1d	2b-y
.	.	.	2b-y
1r	2r	1r	2a
.	2e-X	.	2g
=26	=26	=26	=26
0r	2d	1r	2.a
.	2c	.	.
.	.	.	4g
.	2.d	2r	2f
.	.	2a	2f
.	4c	.	.
=27	=27	=27	=27
2r	2B-y	2g	0r
2d	2B-y	2f	.
2c	1r	2.g	.
2B-y	.	.	.
.	.	4f	.
=28	=28	=28	=28
2.c	1r	2e	2r
.	.	2e	2g
4B-y	.	.	.
2A	2r	1r	2f
2A	2c	.	2e
=29	=29	=29	=29
1r	2B-y	2r	2.f
.	2A	2a	.
.	.	.	4e
2r	2.B-y	2g	2d
2d	.	2f	2d
.	4A	.	.
=30	=30	=30	=30
2B-y	2G	2.g	1r
2B-y	2G	.	.
.	.	4f	.
2.c	1r	2e	2r
.	.	2e	2g
4B-y	.	.	.
=31	=31	=31	=31
2A	2r	2r	1.a
2A	2c	2e	.
2r	[1d	1f	.
2F	.	.	2a
=32	=32	=32	=32
1.G	2d]	2d	1.b-y
.	2d	2.g	.
.	[1e	.	.
.	.	4f	.
2G	.	4e	2b-y
.	.	4d	.
=33	=33	=33	=33
1.A	2e]	2c	1.cc
.	2e	2A	.
.	[1f	[1a	.
2A	.	.	4b-y
.	.	.	4a
=34	=34	=34	=34
0B-y	2f]	2a]	0dd
.	8fL	4g	.
.	8e	.	.
.	8d	4f	.
.	8cJ	.	.
.	1d	1g	.
=35	=35	=35	=35
0A	1e	1a	1cc
.	2r	2r	2r
.	2e	2a	2cc
=36	=36	=36	=36
0r	2f	2a	2cc
.	2e	2g	2cc
.	2f	2a	2cc
.	2e	2g	2cc
=37	=37	=37	=37
1r	1f	1a	1dd
2r	2c	2g	[1cc
2c	2e	2g	.
=38	=38	=38	=38
2F	2f	2a	0cc_
2c	2e	2g	.
2F	2f	2a	.
2c	2e	2g	.
=39	=39	=39	=39
1F	1f	1a	1cc]
2c	2e	2g	2r
2C	2c	2e	2g
=40	=40	=40	=40
2C	2c	2e	2g
2C	2c	2e	2g
2C	2c	2e	2g
2C	2c	2e	2g
=41	=41	=41	=41
2.F	2c	2f	2.a
.	2A	2c	.
4E	.	.	4g
2D	2B-y	2d	2f
2C	2c	2e	2e
=42	=42	=42	=42
1BB-y	1d	2.f	2d
.	.	.	1f
.	.	4g	.
1F	1c	1a	.
.	.	.	4e
.	.	.	4d
=43	=43	=43	=43
1C	2r	1g	2e
.	2c	.	2cc
2r	2d	1r	2b-y
2c	2e	.	2cc
=44	=44	=44	=44
2B-y	2f	2r	2dd
2A	2f	2c	2cc
2G	1g	2d	1b-y
2G	.	2e	.
=45	=45	=45	=45
1F	1c	2f	1a
.	.	2f	.
1c	2r	1g	2r
.	2e	.	2g
=46	=46	=46	=46
0r	2e	1c	2g
.	2e	.	2g
.	2f	1r	2a
.	2d	.	2b-y
=47	=47	=47	=47
1A	2.c	2r	1cc
.	.	2c	.
.	4d	.	.
2A	2e	2c	2r
2A	2f	2c	2a
=48	=48	=48	=48
2B-y	2f	2d	2f
2G	2e	2e	2g
2F	1d	1f	2a
2B-y	.	.	2b-y
=49	=49	=49	=49
2A	2c	1a	1.cc
2F	2f	.	.
[1c	2e	2g	.
.	2c	2e	2cc
=50	=50	=50	=50
1c]	1e	0g	2cc
.	.	.	2.cc
1G	1d	.	.
.	.	.	8bnXiL
.	.	.	8aJ
.	.	.	2bni
=51	=51	=51	=51
1r	1c	2e	0cc
.	.	2e	.
1C	2r	2e	.
.	2G	2e	.
=52	=52	=52	=52
2C	2G	2e	2r
2C	2G	2e	2c
2F	2A	2f	2c
2D	2B-y	2f	2d
=53	=53	=53	=53
2C	1.c	2e	2e
2F	.	2c	2f
2E	.	1e	1g
2C	2c	.	.
=54	=54	=54	=54
0G	2B-y	[0d	2g
.	2G	.	2.b-y
.	1B-y	.	.
.	.	.	4a
.	.	.	[2g
=55	=55	=55	=55
1D	1A	1d]	2g]
.	.	.	2f#i
2r	1G	2r	[1gl
2G	.	2B-y	.
=56	=56	=56	=56
2E-X	2r	2c	0g_
2C	2e-i	2c	.
1G	2d	1d	.
.	2B-y	.	.
=57	=57	=57	=57
1C	1e-i	1c	0g_
[1Gl	[1dl	[1B-yl	.
=58	=58	=58	=58
00G]	00d]	00B-]	00g]
==	==	==	==
*-	*-	*-	*-
!!!system-decoration: [*]
!!!RDF**kern: i = editorial accidental
!!!RDF**kern: l = terminal long
!!!ENC: Benjamin Ory
!!!END: 2024/5/7
!!!EED: Benjamin Ory
!!!EEV: 2024/05/07
!!!YEC: Copyright 2024 Benjamin Ory, All Rights Reserved
!!!ONB: Translated from MusicXML on 2024/05/07
